!! 00025] TT[TB
!! Eigene Aufnahme
!!!OTL: Zhai chazi
!!!ARE: Asia, China,ÿJiangxi, Yongxin
!! Ethnic Group: Han
!! IV, 209
!!!SCT: C0402
!!!YEM: Copyright 1995, estate of Helmut Schaffrath.
**kern
*ICvox
*Ivox
*M2/4
*k[b-e-]
*B-:
{8bb-
8gg
8bb-
8gg
=1
16ddd
16ddd
16r
16ddd
8ccc
8r}
=2
{8bb-
8gg
8ff
8dd
=3
8bb-
8gg
8ff
8dd}
=4
{8gg
8ddd
8bb-
16bb-
16gg
=5
8dd
8dd
4bb-
=6
8.gg
16ddd
4bb-}
=7
{16gg
16gg
16gg
16gg
8ff
16dd
16r
=8
16gg
16gg
16gg
16gg
8ff
8r}
==
!!!AGN: Shange. Xin minge
!! zum Holzsammeln, Kinder auf dem Ruecken); Modus Jiao = selten
!!    Saengerin: Huang Bai am 28.4.87, wieder erkaeltet)
!!    Vereinzelt Verzierungen, Glissandi. vgl. auch Komment. der +++ Doublette.
!!!ONB: ESAC (Essen Associative Code) Database: CHINA
!!!AMT: simple duple
!!!AIN: vox
!!!EED: Helmut Schaffrath
!!!EEV: 1.0
*-
